www/assets/icons/cases.svg

<svg xmlns="http://www.w3.org/2000/svg" width="24" height="24" viewBox="0 0 24 24" fill='currentColor'><path d="M18 6V4l-2-2h-5L9 4v2H5v11s1 2 2 2h13s2-.98 2-2V6zM4 9H2v11c0 1.11.89 2 2 2h14c1.11 0 2-.89 2-2H4zm7-4c0-.55.53-1 1-1h3c.46 0 1 .54 1 1v1h-5zM5 6h17v11c0 1.1-.9 2-2 2H7c-1.1 0-2-.9-2-2z"/></svg>

<svg width="24" height="24" viewBox="0 0 24 24" xmlns="http://www.w3.org/2000/svg" fill='currentColor'><path d="M18 6V4L16 2H11L9 4V6H5V17C5 17 6 19 7 19H20C20 19 22 18.02 22 17V6H18ZM4 9H2V20C2 21.11 2.89 22 4 22H18C19.11 22 20 21.11 20 20H4V9ZM11 5C11 4.45 11.53 4 12 4H15C15.46 4 16 4.54 16 5V6H11V5ZM5 6H22V17C22 18.1 21.1 19 20 19H7C5.9 19 5 18.1 5 17V6Z"/></svg>
